public/assets/anhanguera_logo_alt.svg

<svg xmlns="http://www.w3.org/2000/svg" fill="none" viewBox="0 0 145 40">
    <defs/>
    <path fill="#F16522" d="M9.56118 20.4842c-1.51311.5484-2.98332 1.2093-4.39841 1.9771-.385.2262-.70763.5452-.93869.9281l-2.25284 4.2232c-.17433.3363 0 .5246.33524.4035l1.81032-.5649c2.17239-.659 6.1953-1.6005 6.1953-1.6005.4161-.1338.772-.4099 1.0058-.7801l3.1647-5.8104c.1877-.3362 0-.5111-.3219-.39 0 0-2.2528.7263-4.54588 1.614h-.05364zm20.46332 2.5017c.0539.0036.108-.0037.1591-.0215.0511-.0178.098-.0457.1381-.0821.04-.0364.0723-.0806.095-.1298.0227-.0492.0352-.1025.0369-.1567.0113-.0949-.0126-.1906-.067-.269l-3.0306-5.5817c-.1066-.1701-.2586-.3069-.4387-.3948-.1801-.088-.3812-.1236-.5805-.1028l-6.0478 1.0356c-.065.0081-.1276.0294-.1841.0626-.0566.0331-.1058.0775-.1446.1303-.0389.0529-.0667.1131-.0816.1771-.015.0639-.0168.1302-.0054.1949-.0187.0614-.0187.1269 0 .1883l2.682 5.0168c.1063.1739.2565.3165.4355.4133.179.0969.3803.1445.5836.1382l6.4501-.6187z"/>
    <path fill="#F37920" d="M25.9077 14.0821l-.5632-1.0088-1.0325-1.9637-1.4215-2.6227c-.0893-.17617-.2381-.3148-.4198-.39116-.1818-.07637-.3847-.0855-.5725-.02578-3.5757 1.00861-7.0027 2.48744-10.1914 4.39814-1.0862.7263-2.02493 1.5064-2.02493 1.5064-.34725.2997-.63795.6596-.85822 1.0625l-2.58809 4.7478c-.18774.3363 0 .4708.29501.3094l1.34098-.6187c2.67175-1.1234 5.41855-2.0582 8.22025-2.7976h.1609c3.2183-.8474 9.2259-1.883 9.2259-1.883.0799-.0091.1563-.038.2223-.0842.0659-.0462.1193-.1082.1553-.1804.0359-.0721.0534-.1522.0507-.2328-.0028-.0806-.0255-.1593-.0662-.2289"/>
    <path fill="#F6921E" d="M11.5057 10.8406c1.5633-.93213 3.1747-1.78066 4.8275-2.54201 1.7164-.71284 4.7739-1.57364 4.7739-1.57364.0687-.01585.1336-.04514.191-.08617.0574-.04104.1062-.09303.1435-.15298.0374-.05996.0626-.12672.0742-.19646s.0094-.1411-.0065-.20998c.0053-.05367.0053-.10773 0-.1614L18.6128.685948c-.59-.954943-1.4884-.914593-2.0517.107599L11.1972 10.6523c-.1743.3363-.067.4439.2682.2556"/>
    <path fill="#EF4E23" d="M35.1198 31.0289l-3.272-5.9986c-.0763-.1567-.1894-.2924-.3296-.3955-.1401-.103-.3031-.1704-.475-.1963h-.2012c-8.8632.5333-17.6434 2.0214-26.18927 4.4384-1.55554.4573-3.40609 1.1029-3.40609 1.1029-.22854.0446-.442487.1454-.622685.2933-.180198.1478-.321024.3382-.409868.5541v.1883c-.469343.9953 0 1.7888 1.220293 1.7888H33.8995c1.1532 0 1.6762-.7935 1.2203-1.7888"/>
    <path fill="#444445" d="M41.5703 20.3362h4.1839l-1.046-3.7121c-.4736-1.6444-.8276-3.3211-1.0593-5.0168-.2682 1.6946-.6303 3.3624-1.0594 5.0168l-1.0192 3.7121zm4.6935 1.9368h-5.2701l-1.18 4.2905c-.0939.2959-.1878.417-1.1533.417-.5152.0076-1.0304-.0194-1.5421-.0807l5.3639-17.98252c0-.269.3889-.3766.9387-.3766.3858.00058.7711.02755 1.1532.0807L49.938 26.5366c0 .2959-.0938.4439-1.0593.4439H47.417l-1.1532-4.7075zm5.0555-7.7875c1.5381-.5507 3.1544-.8504 4.7872-.8877 3.1782 0 4.2644.9684 4.2644 3.497v9.4149c0 .417 0 .417-2.5345.417V17.727c0-1.6544-.3084-2.2731-1.8237-2.2731-.7703.0057-1.5317.1657-2.2395.4708v10.585c0 .417 0 .417-2.4539.417V14.4855zm11.2642-5.81032c0-.96839.4291-.96839 2.454-.96839v6.89981c.9914-.6656 2.1594-1.017 3.3524-1.0088 2.6015 0 3.1379 1.2509 3.1379 3.4432v9.4149c0 .417-.1207.417-2.5345.417v-9.2266c0-1.1567-.2413-2.0848-1.7298-2.0848-.8124-.0004-1.6046.2535-2.2663.7263v10.2219c0 .417 0 .417-2.454.417l.0403-18.25152zM78.045 20.5245c-1.2069 0-2.2395.3632-2.2395 2.69 0 1.9099.7912 2.2596 1.9713 2.2596.5667.0206 1.1254-.1395 1.5957-.4573.12-1.4178.1648-2.841.1341-4.2636-.4593-.1489-.9387-.226-1.4214-.2287h-.0402zm-4.4119-6.2273c1.4543-.5139 2.9915-.7511 4.5325-.6994 2.6015 0 3.7548.8339 3.7548 3.1877v1.345c0 3.0127 0 6.1466-.1743 8.1371-1.3161.6189-2.7576.9228-4.2107.8877-2.2126 0-4.3314-.39-4.3314-4.0349 0-3.645 1.9981-4.2905 4.023-4.2905.7525-.0187 1.5022.0998 2.2126.3497v-1.9772c0-1.2239-.6705-1.5467-1.8774-1.5467-1.3619-.0041-2.7171.1907-4.0229.5783-.2298-.3559-.3467-.7732-.3353-1.197-.013-.1419.0111-.2847.0699-.4144.0588-.1298.1503-.2419.2654-.3254h.0938zm10.4999.1883c1.531-.5431 3.1372-.8426 4.7605-.8877 3.1781 0 4.2777.9684 4.2777 3.497v9.4149c0 .417 0 .417-2.5479.417V17.727c0-1.6544-.295-2.2731-1.8103-2.2731-.771-.0011-1.5338.1592-2.2394.4708v10.585c0 .417 0 .417-2.454.417l.0134-12.4412zm31.875 11.7687c-1.425.6256-2.964.9462-4.519.9415-3.594 0-4.533-1.345-4.533-4.3443v-8.5542c0-.4438 0-.4438 2.535-.4438v9.1863c0 1.6947.402 2.2999 2.038 2.2999.703.0124 1.399-.1492 2.025-.4707V14.2972c0-.4438 0-.4438 2.454-.4438v12.4008zm4.68-6.3618c1.347.0539 2.696-.0408 4.023-.2825.109-.517.159-1.0451.148-1.5736 0-1.883-.416-2.5824-1.73-2.5824-1.315 0-2.32.9146-2.508 4.4385h.067zm6.638-2.0847c.016 1.1433-.096 2.2848-.335 3.4028-2.098.2866-4.213.4259-6.33.4169.121 2.7707.966 3.497 2.816 3.497 1.195-.005 2.373-.2809 3.447-.807.137.4674.209.9518.214 1.4391 0 .807-1.904 1.4392-4.184 1.4392-2.802 0-4.841-1.0222-4.841-6.1197 0-6.5367 2.682-7.4782 5.364-7.4782s3.849 1.345 3.849 4.2099zm1.797-3.0128c1.248-.7413 2.666-1.1446 4.117-1.1702 1.542 0 2.118.3901 2.118 1.0895.001.4357-.091.8665-.268 1.2643-.453-.213-.948-.3233-1.448-.3228-.712-.0068-1.409.2043-1.998.6052v10.2757c0 .417 0 .417-2.481.417l-.04-12.1587zm11.975 5.7565c-1.207 0-2.24.3632-2.24 2.69 0 1.9099.792 2.2596 1.972 2.2596.566.0206 1.125-.1395 1.595-.4573.094-.8608.094-2.7976.094-4.2098-.459-.1489-.939-.226-1.421-.2287v-.0538zm-4.452-6.1735c1.476-.5207 3.036-.758 4.599-.6994 2.682 0 3.755.8339 3.755 3.1877v1.345c0 3.0127 0 6.1466-.174 8.1371-1.316.6189-2.758.9228-4.211.8877-2.213 0-4.331-.39-4.331-4.0349 0-3.645 1.998-4.2905 4.023-4.2905.752-.0187 1.502.0998 2.212.3496v-2.0578c0-1.2239-.657-1.5467-1.877-1.5467-1.362-.0041-2.717.1907-4.023.5783-.226-.357-.338-.7745-.322-1.197-.013-.1406.01-.2822.066-.4115.056-.1294.144-.2424.256-.3283l.027.0807zm-36.448 10.6793c-.187.0268-.3765.0268-.5633 0-1.2069-.269-1.9042-1.4526-2.0785-3.5374v-1.8561c-.0083-1.0164.2707-2.0143.8046-2.8782.2775-.3598.6395-.645 1.0536-.8304.4142-.1854.8676-.2652 1.3196-.2322.553-.002 1.105.043 1.65.1345v8.5542l-.215.1614c-.583.3603-1.26.5383-1.944.5111l-.027-.0269zm-2.7357 6.3752c-.4063.0269-.814.0269-1.2203 0-.1207.4036-.1207.8338 0 1.2374.0394.1436.1123.2758.2125.3857s.225.1943.3641.2464c.1921.0541.3906.0813.5901.0807 1.9215.0706 3.7973-.5983 5.2433-1.8695.444-.3934.832-.846 1.153-1.345.701-1.1137 1.06-2.4091 1.033-3.7256V14.3376h-.161c-1.314-.3442-2.666-.516-4.023-.5111-.7987-.0608-1.6008.0533-2.351.3343-.7503.281-1.4306.7222-1.9939 1.2931-.9876 1.3916-1.4617 3.0844-1.341 4.7882v.2286c.0021.7678.0785 1.5335.228 2.2865.094.7128.3389 1.3972.7182 2.0072.3793.6101.8842 1.1318 1.481 1.5301.8519.487 1.8228.7247 2.8027.686.719-.0143 1.431-.1507 2.105-.4035v.0807c.02.5938-.081 1.1854-.298 1.7383-.217.5529-.544 1.0553-.962 1.4762l-.201.2018c-.717.7206-1.67 1.1556-2.6824 1.2239-.2829.0111-.5649.0381-.8448.0807"/>
    <path fill="#EF4E23" d="M112.441 30.2219v9.2939c0 .3228 0 .3228-1.797.3228v-9.6167h-2.025v-1.345c0-.2286.094-.3228.322-.3228h5.471v1.345c0 .2556-.094.3094-.322.3094l-1.649.0134zm1.126 1.8561c.75-.3507 1.575-.5079 2.401-.4573 1.475 0 2.025.5111 2.025 1.9637v.7532c0 1.8561 0 3.9543-.081 5.1513-.716.3676-1.515.5437-2.32.5111-1.193 0-2.279-.269-2.279-2.5151 0-2.2462.898-2.69 1.85-2.69.359-.0039.713.0792 1.033.2421v-1.1029c0-.4304-.188-.6052-.684-.6052-.657.0154-1.308.1287-1.931.3362-.159-.3268-.242-.6855-.242-1.0491.005-.2019.087-.3943.228-.538zm2.2 4.035c-.349 0-.564.2555-.564 1.345 0 .7666.121 1.076.523 1.076.159.0021.312-.0555.43-.1614v-2.0848c-.114-.0816-.249-.1283-.389-.1345v-.0403zm7.938 3.2818c-.735.3928-1.554.6005-2.387.6052-1.931 0-2.427-.9011-2.427-2.421v-5.4741c0-.3228 0-.3228 1.864-.3228v5.8776c0 .4977.081.7532.537.7532.219.0114.434-.0607.603-.2017v-6.1063c0-.3228 0-.3228 1.81-.3228v7.6127zm1.1-10.5986c0-.807.282-.807 1.797-.807v4.035c.38-.3042.854-.4659 1.341-.4573 1.274 0 1.81.8473 1.81 3.2683 0 4.5864-1.716 5.111-3.098 5.111-.661.0491-1.321-.121-1.877-.4842l.027-10.6658zm1.797 9.4956c.046.0446.101.0794.161.1025.06.0231.123.034.187.032.309 0 .792-.4842.792-3.2145 0-1.4795-.215-1.9771-.604-1.9771-.099-.003-.198.0146-.29.0516-.093.037-.176.0927-.246.1636v4.8419zm4.036-6.2138c.75-.3507 1.575-.5079 2.401-.4573 1.475 0 2.024.5111 2.024 1.9637v.7532c0 1.8561 0 3.9543-.08 5.1513-.717.3676-1.516.5437-2.32.5111-1.18 0-2.28-.269-2.28-2.5151 0-2.2462.899-2.69 1.851-2.69.359-.0039.713.0792 1.032.2421v-1.1029c0-.4304-.187-.6052-.683-.6052-.657.0154-1.308.1287-1.931.3362-.159-.3268-.242-.6855-.242-1.0491.005-.2019.087-.3943.228-.538zm2.199 4.035c-.348 0-.549.2555-.549 1.345 0 .7666.107 1.076.509 1.076.159.0049.313-.0531.429-.1614v-2.0848c-.114-.0816-.249-.1283-.389-.1345v-.0403zm3.608-2.7976h-1.006c0-1.345 0-1.5333.375-1.5333h.59v-2.3403c0-.5649.362-.5649 1.811-.5649v2.9052h1.341c0 1.345 0 1.5333-.349 1.5333h-.966v4.3443c0 .3632 0 .7667.389.7667.29.0008.575-.0684.832-.2018.064.2872.1.58.107.8742 0 .7667-.845.8608-1.462.8608-1.341 0-1.676-.8339-1.676-2.273l.014-4.3712zm8.22.9281c.016.7679-.056 1.5351-.215 2.2864-.922.154-1.854.235-2.789.2421 0 1.0222.282 1.4795 1.046 1.4795.594-.0242 1.176-.1804 1.703-.4573.098.3959.148.8025.147 1.2105 0 .6456-1.032.9953-2.279.9953-1.462 0-2.494-.7397-2.494-3.8063 0-3.9005 1.341-4.573 2.829-4.573 1.287 0 2.052.7532 2.052 2.6228zm-3.098-4.3982c.583-.7567 1.296-1.4034 2.105-1.9098.403 0 .725.7263.818 1.3449-.667.6192-1.416 1.1441-2.226 1.5602-.469-.0134-.697-.9953-.697-.9953zm.081 5.5145c.403.0183.806-.0317 1.193-.1479.057-.2743.084-.5539.08-.8339 0-1.0357-.147-1.1971-.549-1.1971-.403 0-.671.7129-.724 2.1789z"/>
</svg>

<svg width="145" height="40" viewBox="0 0 145 40" fill="none" xmlns="http://www.w3.org/2000/svg">
<g clip-path="url(#clip0)">
<path d="M9.56118 20.4842C8.04807 21.0326 6.57786 21.6935 5.16277 22.4613C4.77777 22.6875 4.45514 23.0065 4.22408 23.3894L1.97124 27.6126C1.79691 27.9489 1.97124 28.1372 2.30648 28.0161L4.1168 27.4512C6.28919 26.7922 10.3121 25.8507 10.3121 25.8507C10.7282 25.7169 11.0841 25.4408 11.3179 25.0706L14.4826 19.2602C14.6703 18.924 14.4826 18.7491 14.1607 18.8702C14.1607 18.8702 11.9079 19.5965 9.61482 20.4842H9.56118ZM30.0245 22.9859C30.0784 22.9895 30.1325 22.9822 30.1836 22.9644C30.2347 22.9466 30.2816 22.9187 30.3217 22.8823C30.3617 22.8459 30.394 22.8017 30.4167 22.7525C30.4394 22.7033 30.4519 22.65 30.4536 22.5958C30.4649 22.5009 30.441 22.4052 30.3866 22.3268L27.356 16.7451C27.2494 16.575 27.0974 16.4382 26.9173 16.3503C26.7372 16.2623 26.5361 16.2267 26.3368 16.2475L20.289 17.2831C20.224 17.2912 20.1614 17.3125 20.1049 17.3457C20.0483 17.3788 19.9991 17.4232 19.9603 17.476C19.9214 17.5289 19.8936 17.5891 19.8787 17.6531C19.8637 17.717 19.8619 17.7833 19.8733 17.848C19.8546 17.9094 19.8546 17.9749 19.8733 18.0363L22.5553 23.0531C22.6616 23.227 22.8118 23.3696 22.9908 23.4664C23.1698 23.5633 23.3711 23.6109 23.5744 23.6046L30.0245 22.9859Z" fill="#F16522"/>
<path d="M25.9077 14.0821L25.3445 13.0733L24.312 11.1096L22.8905 8.4869C22.8012 8.31073 22.6524 8.1721 22.4707 8.09574C22.2889 8.01937 22.086 8.01024 21.8982 8.06996C18.3225 9.07857 14.8955 10.5574 11.7068 12.4681C10.6206 13.1944 9.68187 13.9745 9.68187 13.9745C9.33462 14.2742 9.04392 14.6341 8.82365 15.037L6.23556 19.7848C6.04782 20.1211 6.23556 20.2556 6.53057 20.0942L7.87155 19.4755C10.5433 18.3521 13.2901 17.4173 16.0918 16.6779H16.2527C19.471 15.8305 25.4786 14.7949 25.4786 14.7949C25.5585 14.7858 25.6349 14.7569 25.7009 14.7107C25.7668 14.6645 25.8202 14.6025 25.8562 14.5303C25.8921 14.4582 25.9096 14.3781 25.9069 14.2975C25.9041 14.2169 25.8814 14.1382 25.8407 14.0686" fill="#F37920"/>
<path d="M11.5057 10.8406C13.069 9.90847 14.6804 9.05994 16.3332 8.29859C18.0496 7.58575 21.1071 6.72495 21.1071 6.72495C21.1758 6.7091 21.2407 6.67981 21.2981 6.63878C21.3555 6.59774 21.4043 6.54575 21.4416 6.4858C21.479 6.42584 21.5042 6.35908 21.5158 6.28934C21.5274 6.2196 21.5252 6.14824 21.5093 6.07936C21.5146 6.02569 21.5146 5.97163 21.5093 5.91796L18.6128 0.685948C18.0228 -0.268995 17.1244 -0.228645 16.5611 0.793547L11.1972 10.6523C11.0229 10.9886 11.1302 11.0962 11.4654 10.9079" fill="#F6921E"/>
<path d="M35.1198 31.0289L31.8478 25.0303C31.7715 24.8736 31.6584 24.7379 31.5182 24.6348C31.3781 24.5318 31.2151 24.4644 31.0432 24.4385H30.842C21.9788 24.9718 13.1986 26.4599 4.65273 28.8769C3.09719 29.3342 1.24664 29.9798 1.24664 29.9798C1.0181 30.0244 0.804153 30.1252 0.623955 30.2731C0.443757 30.4209 0.302931 30.6113 0.214087 30.8272V31.0155C-0.255256 32.0108 0.214087 32.8043 1.43438 32.8043H33.8995C35.0527 32.8043 35.5757 32.0108 35.1198 31.0155" fill="#EF4E23"/>
<path d="M41.5703 20.3362H45.7542L44.7082 16.6241C44.2346 14.9797 43.8806 13.303 43.6489 11.6073C43.3807 13.3019 43.0186 14.9697 42.5895 16.6241L41.5703 20.3362ZM46.2638 22.273H40.9937L39.8137 26.5635C39.7198 26.8594 39.6259 26.9805 38.6604 26.9805C38.1452 26.9881 37.63 26.9611 37.1183 26.8998L42.4822 8.91728C42.4822 8.64828 42.8711 8.54068 43.4209 8.54068C43.8067 8.54126 44.192 8.56823 44.5741 8.62138L49.938 26.5366C49.938 26.8325 49.8442 26.9805 48.8787 26.9805H47.417L46.2638 22.273ZM51.3193 14.4855C52.8574 13.9348 54.4737 13.6351 56.1065 13.5978C59.2847 13.5978 60.3709 14.5662 60.3709 17.0948V26.5097C60.3709 26.9267 60.3709 26.9267 57.8364 26.9267V17.727C57.8364 16.0726 57.528 15.4539 56.0127 15.4539C55.2424 15.4596 54.481 15.6196 53.7732 15.9247V26.5097C53.7732 26.9267 53.7732 26.9267 51.3193 26.9267V14.4855ZM62.5835 8.67518C62.5835 7.70679 63.0126 7.70679 65.0375 7.70679V14.6066C66.0289 13.941 67.1969 13.5896 68.3899 13.5978C70.9914 13.5978 71.5278 14.8487 71.5278 17.041V26.4559C71.5278 26.8729 71.4071 26.8729 68.9933 26.8729V17.6463C68.9933 16.4896 68.752 15.5615 67.2635 15.5615C66.4511 15.5611 65.6589 15.815 64.9972 16.2878V26.5097C64.9972 26.9267 64.9972 26.9267 62.5432 26.9267L62.5835 8.67518ZM78.045 20.5245C76.8381 20.5245 75.8055 20.8877 75.8055 23.2145C75.8055 25.1244 76.5967 25.4741 77.7768 25.4741C78.3435 25.4947 78.9022 25.3346 79.3725 25.0168C79.4925 23.599 79.5373 22.1758 79.5066 20.7532C79.0473 20.6043 78.5679 20.5272 78.0852 20.5245H78.045ZM73.6331 14.2972C75.0874 13.7833 76.6246 13.5461 78.1656 13.5978C80.7671 13.5978 81.9204 14.4317 81.9204 16.7855V18.1305C81.9204 21.1432 81.9204 24.2771 81.7461 26.2676C80.43 26.8865 78.9885 27.1904 77.5354 27.1553C75.3228 27.1553 73.204 26.7653 73.204 23.1204C73.204 19.4754 75.2021 18.8299 77.227 18.8299C77.9795 18.8112 78.7292 18.9297 79.4396 19.1796V17.2024C79.4396 15.9785 78.7691 15.6557 77.5622 15.6557C76.2003 15.6516 74.8451 15.8464 73.5393 16.234C73.3095 15.8781 73.1926 15.4608 73.204 15.037C73.191 14.8951 73.2151 14.7523 73.2739 14.6226C73.3327 14.4928 73.4242 14.3807 73.5393 14.2972H73.6331ZM84.133 14.4855C85.664 13.9424 87.2702 13.6429 88.8935 13.5978C92.0716 13.5978 93.1712 14.5662 93.1712 17.0948V26.5097C93.1712 26.9267 93.1712 26.9267 90.6233 26.9267V17.727C90.6233 16.0726 90.3283 15.4539 88.813 15.4539C88.042 15.4528 87.2792 15.6131 86.5736 15.9247V26.5097C86.5736 26.9267 86.5736 26.9267 84.1196 26.9267L84.133 14.4855ZM116.008 26.2542C114.583 26.8798 113.044 27.2004 111.489 27.1957C107.895 27.1957 106.956 25.8507 106.956 22.8514V14.2972C106.956 13.8534 106.956 13.8534 109.491 13.8534V23.0397C109.491 24.7344 109.893 25.3396 111.529 25.3396C112.232 25.352 112.928 25.1904 113.554 24.8689V14.2972C113.554 13.8534 113.554 13.8534 116.008 13.8534V26.2542ZM120.688 19.8924C122.035 19.9463 123.384 19.8516 124.711 19.6099C124.82 19.0929 124.87 18.5648 124.859 18.0363C124.859 16.1533 124.443 15.4539 123.129 15.4539C121.814 15.4539 120.809 16.3685 120.621 19.8924H120.688ZM127.326 17.8077C127.342 18.951 127.23 20.0925 126.991 21.2105C124.893 21.4971 122.778 21.6364 120.661 21.6274C120.782 24.3981 121.627 25.1244 123.477 25.1244C124.672 25.1194 125.85 24.8435 126.924 24.3174C127.061 24.7848 127.133 25.2692 127.138 25.7565C127.138 26.5635 125.234 27.1957 122.954 27.1957C120.152 27.1957 118.113 26.1735 118.113 21.076C118.113 14.5393 120.795 13.5978 123.477 13.5978C126.159 13.5978 127.326 14.9428 127.326 17.8077ZM129.123 14.7949C130.371 14.0536 131.789 13.6503 133.24 13.6247C134.782 13.6247 135.358 14.0148 135.358 14.7142C135.359 15.1499 135.267 15.5807 135.09 15.9785C134.637 15.7655 134.142 15.6552 133.642 15.6557C132.93 15.6489 132.233 15.86 131.644 16.2609V26.5366C131.644 26.9536 131.644 26.9536 129.163 26.9536L129.123 14.7949ZM141.098 20.5514C139.891 20.5514 138.858 20.9146 138.858 23.2414C138.858 25.1513 139.65 25.501 140.83 25.501C141.396 25.5216 141.955 25.3615 142.425 25.0437C142.519 24.1829 142.519 22.2461 142.519 20.8339C142.06 20.685 141.58 20.6079 141.098 20.6052V20.5514ZM136.646 14.3779C138.122 13.8572 139.682 13.6199 141.245 13.6785C143.927 13.6785 145 14.5124 145 16.8662V18.2112C145 21.2239 145 24.3578 144.826 26.3483C143.51 26.9672 142.068 27.2711 140.615 27.236C138.402 27.236 136.284 26.846 136.284 23.2011C136.284 19.5561 138.282 18.9106 140.307 18.9106C141.059 18.8919 141.809 19.0104 142.519 19.2602V17.2024C142.519 15.9785 141.862 15.6557 140.642 15.6557C139.28 15.6516 137.925 15.8464 136.619 16.234C136.393 15.877 136.281 15.4595 136.297 15.037C136.284 14.8964 136.307 14.7548 136.363 14.6255C136.419 14.4961 136.507 14.3831 136.619 14.2972L136.646 14.3779ZM100.198 25.0572C100.011 25.084 99.8215 25.084 99.6347 25.0572C98.4278 24.7882 97.7305 23.6046 97.5562 21.5198V19.6637C97.5479 18.6473 97.8269 17.6494 98.3608 16.7855C98.6383 16.4257 99.0003 16.1405 99.4144 15.9551C99.8286 15.7697 100.282 15.6899 100.734 15.7229C101.287 15.7209 101.839 15.7659 102.384 15.8574V24.4116L102.169 24.573C101.586 24.9333 100.909 25.1113 100.225 25.0841L100.198 25.0572ZM97.4623 31.4324C97.056 31.4593 96.6483 31.4593 96.242 31.4324C96.1213 31.836 96.1213 32.2662 96.242 32.6698C96.2814 32.8134 96.3543 32.9456 96.4545 33.0555C96.5547 33.1654 96.6795 33.2498 96.8186 33.3019C97.0107 33.356 97.2092 33.3832 97.4087 33.3826C99.3302 33.4532 101.206 32.7843 102.652 31.5131C103.096 31.1197 103.484 30.6671 103.805 30.1681C104.506 29.0544 104.865 27.759 104.838 26.4425V14.3376H104.677C103.363 13.9934 102.011 13.8216 100.654 13.8265C99.8553 13.7657 99.0532 13.8798 98.303 14.1608C97.5527 14.4418 96.8724 14.883 96.3091 15.4539C95.3215 16.8455 94.8474 18.5383 94.9681 20.2421V20.4707C94.9702 21.2385 95.0466 22.0042 95.1961 22.7572C95.2901 23.47 95.535 24.1544 95.9143 24.7644C96.2936 25.3745 96.7985 25.8962 97.3953 26.2945C98.2472 26.7815 99.2181 27.0192 100.198 26.9805C100.917 26.9662 101.629 26.8298 102.303 26.577V26.6577C102.323 27.2515 102.222 27.8431 102.005 28.396C101.788 28.9489 101.461 29.4513 101.043 29.8722L100.842 30.074C100.125 30.7946 99.172 31.2296 98.1596 31.2979C97.8767 31.309 97.5947 31.336 97.3148 31.3786" fill="#444445"/>
<path d="M112.441 30.2219V39.5158C112.441 39.8386 112.441 39.8386 110.644 39.8386V30.2219H108.619V28.8769C108.619 28.6483 108.713 28.5541 108.941 28.5541H114.412V29.8991C114.412 30.1547 114.318 30.2085 114.09 30.2085L112.441 30.2219Z" fill="#EF4E23"/>
<path d="M113.567 32.078C114.317 31.7273 115.142 31.5701 115.968 31.6207C117.443 31.6207 117.993 32.1318 117.993 33.5844V34.3376C117.993 36.1937 117.993 38.2919 117.912 39.4889C117.196 39.8565 116.397 40.0326 115.592 40C114.399 40 113.313 39.731 113.313 37.4849C113.313 35.2387 114.211 34.7949 115.163 34.7949C115.522 34.791 115.876 34.8741 116.196 35.037V33.9341C116.196 33.5037 116.008 33.3289 115.512 33.3289C114.855 33.3443 114.204 33.4576 113.581 33.6651C113.422 33.3383 113.339 32.9796 113.339 32.616C113.344 32.4141 113.426 32.2217 113.567 32.078ZM115.767 36.113C115.418 36.113 115.203 36.3685 115.203 37.458C115.203 38.2246 115.324 38.534 115.726 38.534C115.885 38.5361 116.038 38.4785 116.156 38.3726C116.156 38.0229 116.156 37.0276 116.156 36.2878C116.042 36.2062 115.907 36.1595 115.767 36.1533V36.113Z" fill="#EF4E23"/>
<path d="M123.705 39.3948C122.97 39.7876 122.151 39.9953 121.318 40C119.387 40 118.891 39.0989 118.891 37.579V32.1049C118.891 31.7821 118.891 31.7821 120.755 31.7821V37.6597C120.755 38.1574 120.836 38.4129 121.292 38.4129C121.511 38.4243 121.726 38.3522 121.895 38.2112V32.1049C121.895 31.7821 121.895 31.7821 123.705 31.7821V39.3948Z" fill="#EF4E23"/>
<path d="M124.805 28.7962C124.805 27.9892 125.087 27.9892 126.602 27.9892V32.0242C126.982 31.72 127.456 31.5583 127.943 31.5669C129.217 31.5669 129.753 32.4142 129.753 34.8352C129.753 39.4216 128.037 39.9462 126.655 39.9462C125.994 39.9953 125.334 39.8252 124.778 39.462L124.805 28.7962ZM126.602 38.2918C126.648 38.3364 126.703 38.3712 126.763 38.3943C126.823 38.4174 126.886 38.4283 126.95 38.4263C127.259 38.4263 127.742 37.9421 127.742 35.2118C127.742 33.7323 127.527 33.2347 127.138 33.2347C127.039 33.2317 126.94 33.2493 126.848 33.2863C126.755 33.3233 126.672 33.379 126.602 33.4499V38.2918Z" fill="#EF4E23"/>
<path d="M130.638 32.078C131.388 31.7273 132.213 31.5701 133.039 31.6207C134.514 31.6207 135.063 32.1318 135.063 33.5844V34.3376C135.063 36.1937 135.063 38.2919 134.983 39.4889C134.266 39.8565 133.467 40.0326 132.663 40C131.483 40 130.383 39.731 130.383 37.4849C130.383 35.2387 131.282 34.7949 132.234 34.7949C132.593 34.791 132.947 34.8741 133.266 35.037V33.9341C133.266 33.5037 133.079 33.3289 132.583 33.3289C131.926 33.3443 131.275 33.4576 130.652 33.6651C130.493 33.3383 130.41 32.9796 130.41 32.616C130.415 32.4141 130.497 32.2217 130.638 32.078ZM132.837 36.113C132.489 36.113 132.288 36.3685 132.288 37.458C132.288 38.2246 132.395 38.534 132.797 38.534C132.956 38.5389 133.11 38.4809 133.226 38.3726C133.226 38.0229 133.226 37.0276 133.226 36.2878C133.112 36.2062 132.977 36.1595 132.837 36.1533V36.113Z" fill="#EF4E23"/>
<path d="M136.445 33.3154H135.439C135.439 31.9704 135.439 31.7821 135.814 31.7821H136.404V29.4418C136.404 28.8769 136.766 28.8769 138.215 28.8769V31.7821H139.556C139.556 33.1271 139.556 33.3154 139.207 33.3154H138.241V37.6597C138.241 38.0229 138.241 38.4264 138.63 38.4264C138.92 38.4272 139.205 38.358 139.462 38.2246C139.526 38.5118 139.562 38.8046 139.569 39.0988C139.569 39.8655 138.724 39.9596 138.107 39.9596C136.766 39.9596 136.431 39.1257 136.431 37.6866L136.445 33.3154Z" fill="#EF4E23"/>
<path d="M144.665 34.2435C144.681 35.0114 144.609 35.7786 144.45 36.5299C143.528 36.6839 142.596 36.7649 141.661 36.772C141.661 37.7942 141.943 38.2515 142.707 38.2515C143.301 38.2273 143.883 38.0711 144.41 37.7942C144.508 38.1901 144.558 38.5967 144.557 39.0047C144.557 39.6503 143.525 40 142.278 40C140.816 40 139.784 39.2603 139.784 36.1937C139.784 32.2932 141.125 31.6207 142.613 31.6207C143.9 31.6207 144.665 32.3739 144.665 34.2435ZM141.567 29.8453C142.15 29.0886 142.863 28.4419 143.672 27.9355C144.075 27.9355 144.397 28.6618 144.49 29.2804C143.823 29.8996 143.074 30.4245 142.264 30.8406C141.795 30.8272 141.567 29.8453 141.567 29.8453ZM141.648 35.3598C142.051 35.3781 142.454 35.3281 142.841 35.2119C142.898 34.9376 142.925 34.658 142.921 34.378C142.921 33.3423 142.774 33.1809 142.372 33.1809C141.969 33.1809 141.701 33.8938 141.648 35.3598Z" fill="#EF4E23"/>
</g>
<defs>
<clipPath id="clip0">
<rect width="145" height="40" fill="white"/>
</clipPath>
</defs>
</svg>
